ix/document-text_linear.svg

<svg viewBox="0 0 24 24" fill="none" xmlns="http://www.w3.org/2000/svg" height="1em" width="1em">
  <path d="M21 7v10c0 3-1.5 5-5 5H8c-3.5 0-5-2-5-5V7c0-3 1.5-5 5-5h8c3.5 0 5 2 5 5Z" stroke="#292D32" stroke-width="1.5" stroke-miterlimit="10" stroke-linecap="round" stroke-linejoin="round"/>
  <path d="M14.5 4.5v2c0 1.1.9 2 2 2h2M8 13h4m-4 4h8" stroke="#292D32" stroke-width="1.5" stroke-miterlimit="10" stroke-linecap="round" stroke-linejoin="round"/>
</svg>

<svg viewBox="0 0 24 24" fill="none" xmlns="http://www.w3.org/2000/svg" height="1em" width="1em">
  <path d="M21 7V17C21 20 19.5 22 16 22H8C4.5 22 3 20 3 17V7C3 4 4.5 2 8 2H16C19.5 2 21 4 21 7Z" stroke="#292D32" stroke-width="1.5" stroke-miterlimit="10" stroke-linecap="round" stroke-linejoin="round"/>
  <path d="M14.5 4.5V6.5C14.5 7.6 15.4 8.5 16.5 8.5H18.5" stroke="#292D32" stroke-width="1.5" stroke-miterlimit="10" stroke-linecap="round" stroke-linejoin="round"/>
  <path d="M8 13H12" stroke="#292D32" stroke-width="1.5" stroke-miterlimit="10" stroke-linecap="round" stroke-linejoin="round"/>
  <path d="M8 17H16" stroke="#292D32" stroke-width="1.5" stroke-miterlimit="10" stroke-linecap="round" stroke-linejoin="round"/>
</svg>
